packages/kaspersky-hexa-ui-icons/src/iconsSVGs/24/ArrowUp1.svg

<svg width="24" height="24" viewBox="0 0 24 24" fill="none" xmlns="http://www.w3.org/2000/svg">
<path fill-rule="evenodd" clip-rule="evenodd" d="M6.29336 15.2076C6.68414 15.5978 7.31731 15.5974 7.70757 15.2066L11.9943 10.9142L16.2934 15.2076C16.6841 15.5978 17.3173 15.5974 17.7076 15.2066C18.0978 14.8159 18.0974 14.1827 17.7066 13.7924L12.7 8.79243C12.5124 8.60501 12.258 8.49983 11.9927 8.5C11.7275 8.50018 11.4732 8.6057 11.2858 8.79336L6.29243 13.7934C5.90216 14.1841 5.90258 14.8173 6.29336 15.2076Z" fill="black"/>
</svg>

<svg xmlns="http://www.w3.org/2000/svg" width="24" height="24" fill="none" viewBox="0 0 24 24"><path fill="#000" fill-rule="evenodd" d="M6.2934 15.2076c.3907.3902 1.024.3898 1.4142-.001l4.2867-4.2924 4.2991 4.2934c.3907.3902 1.0239.3898 1.4142-.001s.3898-1.0239-.001-1.4142l-5.0066-5a.9997.9997 0 0 0-1.4142.001l-4.9934 5c-.3902.3907-.3898 1.0239.001 1.4142" clip-rule="evenodd"/></svg>
